src/assets/icons/letters,simple,sans-g.svg

<svg width="48" height="48" viewBox="0 0 48 48" fill="none" xmlns="http://www.w3.org/2000/svg">
<rect opacity="0.2" x="5" y="5" width="38" height="38" rx="4" fill="black"/>
<path d="M29.1176 20.7422H33.9613C33.3449 16.2837 29.4148 13.1463 24.3179 13.1463C18.3623 13.1463 13.7717 17.4396 13.7717 24.7493C13.7717 31.8828 18.065 36.3082 24.4169 36.3082C30.1084 36.3082 34.1705 32.7085 34.1705 26.7749V23.9347H24.7362V27.5234H29.5799C29.5139 30.3196 27.6094 32.092 24.439 32.092C20.8612 32.092 18.6044 29.4169 18.6044 24.7053C18.6044 20.0156 20.9493 17.3626 24.3949 17.3626C26.8498 17.3626 28.5121 18.6286 29.1176 20.7422Z" fill="black"/>
</svg>

<svg xmlns="http://www.w3.org/2000/svg" width="48" height="48" fill="none" viewBox="0 0 48 48">
  <rect width="38" height="38" x="5" y="5" fill="#000" opacity=".2" rx="4"/>
  <path fill="#000" d="M29.118 20.742h4.843c-.616-4.458-4.546-7.596-9.643-7.596-5.956 0-10.546 4.294-10.546 11.603 0 7.134 4.293 11.56 10.645 11.56 5.691 0 9.753-3.6 9.753-9.534v-2.84h-9.434v3.588h4.844c-.066 2.797-1.97 4.569-5.141 4.569-3.578 0-5.835-2.675-5.835-7.387 0-4.69 2.345-7.342 5.79-7.342 2.456 0 4.118 1.266 4.724 3.38z"/>
</svg>
